static/images/social/telegram.svg

<svg xmlns="http://www.w3.org/2000/svg" width="24" height="24" viewBox="0 0 24 24"><path d="M9.78 18.65l.28-4.23 7.68-6.92c.34-.31-.07-.46-.52-.19L7.74 13.3 3.64 12c-.88-.25-.89-.86.2-1.3l15.97-6.16c.73-.33 1.43.18 1.15 1.3l-2.72 12.81c-.19.91-.74 1.13-1.5.71L12.6 16.3l-1.99 1.93c-.23.23-.42.42-.83.42z"/></svg>

<?xml version="1.0" encoding="UTF-8"?><!DOCTYPE svg PUBLIC "-//W3C//DTD SVG 1.1//EN" "http://www.w3.org/Graphics/SVG/1.1/DTD/svg11.dtd"><svg xmlns="http://www.w3.org/2000/svg" xmlns:xlink="http://www.w3.org/1999/xlink" version="1.1" width="24" height="24" viewBox="0 0 24 24"><path d="M9.78,18.65L10.06,14.42L17.74,7.5C18.08,7.19 17.67,7.04 17.22,7.31L7.74,13.3L3.64,12C2.76,11.75 2.75,11.14 3.84,10.7L19.81,4.54C20.54,4.21 21.24,4.72 20.96,5.84L18.24,18.65C18.05,19.56 17.5,19.78 16.74,19.36L12.6,16.3L10.61,18.23C10.38,18.46 10.19,18.65 9.78,18.65Z" /></svg>
